svgs/solid/oil-can-drip.svg

<svg xmlns="http://www.w3.org/2000/svg" viewBox="0 0 640 512"><!--! Font Awesome Pro 6.2.0 by @fontawesome - https://fontawesome.com License - https://fontawesome.com/license (Commercial License) Copyright 2022 Fonticons, Inc. --><path d="M352 96c0 17.7-14.3 32-32 32H288v32h80.9c9.9 0 19.7 2.3 28.6 6.8L448 192l167-35.8c18.1-3.9 30.7 17.6 18.4 31.5L451.1 394.3c-12.1 13.8-29.6 21.7-48 21.7H144c-26.5 0-48-21.5-48-48V346.7l-67.5-30C11.2 309 0 291.8 0 272.8V208c0-26.5 21.5-48 48-48H96h48 80V128H192c-17.7 0-32-14.3-32-32s14.3-32 32-32H320c17.7 0 32 14.3 32 32zM48 208v64.8l48 21.3V208H48zM592 448c-26.5 0-48-21.5-48-48c0-21 20.6-62.6 34.9-88.8c5.8-10.6 20.5-10.6 26.3 0C619.4 337.4 640 379 640 400c0 32-21.5 48-48 48z"/></svg>

<svg xmlns="http://www.w3.org/2000/svg" viewBox="0 0 640 512"><!--! Font Awesome Pro 6.1.2 by @fontawesome - https://fontawesome.com License - https://fontawesome.com/license (Commercial License) Copyright 2022 Fonticons, Inc. --><path d="M352 96C352 113.7 337.7 128 320 128H288V160H368.9C378.8 160 388.6 162.3 397.5 166.8L448 192L615 156.2C633.1 152.3 645.7 173.8 633.5 187.7L451.1 394.3C438.1 408.1 421.5 416 403.1 416H144C117.5 416 96 394.5 96 368V346.7L28.51 316.7C11.17 308.1 0 291.8 0 272.8V208C0 181.5 21.49 160 48 160H224V128H192C174.3 128 160 113.7 160 96C160 78.33 174.3 64 192 64H320C337.7 64 352 78.33 352 96V96zM48 272.8L96 294.1V208H48V272.8zM544 400C544 379 564.6 337.4 578.9 311.2C584.6 300.6 599.4 300.6 605.1 311.2C619.4 337.4 640 379 640 400C640 432 618.5 448 592 448C565.5 448 544 426.5 544 400z"/></svg>
